X:1
T:In the Hall of the Mountian King
T:from PEER GYNT
T:Edvard Greig
%%score { ( 1 3 ) | 2 }
L:1/8
M:4/4
K:D
V:1 bass nm="Organ" snm="Org."
V:3 bass 
V:2 bass 
V:1
 [F,F]8 | B,,,C,,D,,E,, F,,D,, F,,2 | ^E,,C,, ^E,,2 =E,,=C,, E,,2 | B,,,^C,,D,,E,, F,,D,,F,,B,, | %4
 A,,F,,D,,F,, A,,4 | B,,C,D,E, F,D, F,2 | ^E,C, ^E,2 =E,=C, E,2 | B,,^C,D,E, F,D,F,B, | %8
 A,F,D,F, [A,,A,]4 | F,,^G,,^A,,B,, C,^A,, C,2 | D,^A,, D,2 C,^A,, C,2 | %11
 F,,^G,,^A,,B,, C,^A,, C,2 | D,^A,, D,2 C,4 | F,^G,A,B, CA, C2 | D^A, D2 C^A, C2 | %15
 F,^G,^A,B, C^A, C2 | D^A, D2 [C,C]4 | B,,,C,,D,,E,, F,,D,, F,,2 | ^E,,C,, ^E,,2 =E,,=C,, E,,2 | %19
 B,,,^C,,D,,E,, F,,D,,F,,B,, | A,,F,,D,,F,, A,,4 | B,,C,D,E, F,D, F,2 | ^E,C, ^E,2 =E,=C, E,2 | %23
 B,,^C,D,E, F,E,F,B, | F,D,F,B, B,,4 |[K:treble] B,C[F,D]=E FD [F,F]2 | ^EC [F,^E]2 =E=C [F,E]2 | %27
 B,C[F,D]=E FD[FF]B | AF[A,E]F A4 | Bcd=e fd f2 | ^ec ^e2 =e=c e2 | B^c[Fd]e fdfb | afdf a4 | %33
 F^G^AB c^A [^Ac]2 | d^A [^Ad]2 c^A [^Ac]2 | F^G^AB c^A [^Ac]2 | d^A [^Ad]2 c4 | %37
 f^g[f^a]b c'^a [f^ac']2 | d'^a [^f^ad']2 c'^a [^f^ac']2 | f^g[f^a]b c'^a [f^ac']2 | %40
 d'^a [f^ad']2 c'4 | B,C[F,D]=E FD [F,F]2 | ^EC [F,^E]2 =E=C [F,^E]2 | B,^C[F,D]E FD[B,F]B | %44
 AF[A,D]F A4 | Bc[Fd]=e fd [Ff]2 | ^ec [F^e]2 =e=c [Fe]2 | B^cd=e fdfb | fdfb B4 | Bcde fd f2 | %50
 ^ec ^e2 =e=c e2 | B^cde fdfb | afdf a4 | Bcde fd f2 | ^ec ^e2 =e=c e2 | B^cde fdfb | a^fdf a4 | %57
 f^g^ab c'^a c'2 | [dfd']^a [dfd']2 [dfd']^a [dfd']2 | f[^fg][f^a][fb] [cfc'][cf^a] [cfc']2 | %60
 [dfd'][df^a] [dfd']2 [cfc']4 | Bcde fd f2 | ^ec ^e2 =e=c e2 | Bcde fdfb | afdf a4 | %65
 B[Bc][Bd][Be] [Bf][Bd] [Bdf]2 | [B^e][Bc] [Bce]2 [B=e][=Bc] [Bce]2 | %67
 B[B^c][Bd][Be] [Bf][Bd][Bf][Bb] | [Bf][Bd][Bf][Bb] B4 | z2 [db]2 z4 | z2 [db]2 z4 | Bcde fdfb | %72
 ^af^ac' b4 | z2 [db]2 z4 | z2 [db]2 z4 | Bcde fdfb | ^af^ac' b4 | z2 [db]2 z4 | z2 [db]2 z4 | %79
 Bcde fefb | ^af^ac' b4 | z2 [db]2 z4 | z2 [db]2 [db]2 [db]2 | [db]2 [db]2 [db]2 [db]2 | z8 | z8 | %86
 z8 | z2 [db]2 z4 |] %88
V:2
 z8 | B,,,2 F,,2 B,,,2 F,,2 | B,,,2 F,,2 B,,,2 F,,2 | B,,,2 F,,2 B,,,2 F,,2 | D,,2 A,,2 D,,2 A,,2 | %5
 B,,,2 F,,2 B,,,2 F,,2 | B,,,2 F,,2 B,,,2 F,,2 | B,,,2 F,,2 B,,,2 F,,2 | D,,2 A,,2 D,,2 A,,2 | %9
 F,,2 C,2 F,,2 C,2 | D,,2 ^A,,2 F,,2 C,2 | F,,2 C,2 F,,2 C,2 | D,,2 ^A,,2 D,,2 ^A,,2 | %13
 F,,2 C,2 F,,2 C,2 | D,,2 ^A,,2 F,,2 C,2 | F,,2 C,2 F,,2 C,2 | D,,2 ^A,,2 F,,2 C,2 | %17
 B,,,2 F,,2 B,,,2 F,,2 | B,,,2 F,,2 B,,,2 F,,2 | B,,,2 F,,2 B,,,2 F,,2 | D,,2 A,,2 D,,2 A,,2 | %21
 B,,,2 F,,2 B,,,2 F,,2 | B,,,2 F,,2 B,,,2 F,,2 | B,,,2 B,,2 A,,2 A,,2 | F,,2 E,,2 D,,2 C,,2 | %25
 B,,,2 [F,,D,]/^E,,/F,, B,,,2 [F,,D,]/^E,,/F,, | B,,,2 [F,,C,]/^E,,/F,, B,,,2 [F,,=C,]/^E,,/F,, | %27
 B,,,2 [F,,D,]/^E,,/F,, B,,,2 [F,,D,]/^E,,/F,, | D,,2 [F,,D,]/^E,,/F,, D,,2 [F,,D,]/^E,,/F,, | %29
 B,,,2 [F,,D,]/^E,,/F,, B,,,2 [F,,D,]/^E,,/F,, | B,,,2 [F,,C,]/^E,,/F,, B,,,2 [F,,=C,]/^E,,/F,, | %31
 B,,,2 [F,,D,]/^E,,/F,, B,,,2 [F,,D,]/^E,,/F,, | D,,2 [A,,F,]/^G,,/A,, D,,2 [A,,F,]/=G,,/A,, | %33
 F,,2 [C,^A,]/^B,,/C, F,,2 [C,^A,]/^B,,/C, | D,,2 [D,^A,]/C,/D, F,,2 [C,^A,]/^B,,/C, | %35
 F,,2 [C,^A,]/^B,,/C, F,,2 [C,^A,]/^B,,/C, | D,,2 [D,^A,]/C,/D, F,,2 [C,^A,]/^B,,/C, | %37
 F,,2 [C,^A,]/^B,,/C, F,,2 [C,^A,]/B,,/C, | D,,2 [D,^A,]/C,/D, F,,2 [C,^A,]/^B,,/C, | %39
 F,,2 [C,^A,]/^B,,/C, F,,2 [C,^A,]/^B,,/C, | D,,2 [D,^A,]/C,/D, F,,2 [C,^A,]/^B,,/C, | %41
 B,,,/^E,,/F,,/D,/ ^E,,/F,,/ z B,,,/E,,/F,,/D,/ ^E,,/F,,/ z | %42
 B,,,/^E,,/F,,/^C,/ ^E,,/F,,/ z B,,,/^E,,/F,,/=C,/ ^E,,/F,,/ z | %43
 B,,,/^E,,/F,,/D,/ ^E,,/F,,/ z B,,,/E,,/F,,/D,/ ^E,,/F,,/ z | %44
 D,,A,,/^F,/ ^G,,/A,,/ z D,,/G,,/A,,/^F,/ ^G,,/A,,/ z | %45
 B,,,/^E,,/F,,/D,/ ^E,,/F,,/ z B,,,/E,,/F,,/D,/ ^E,,/F,,/ z | %46
 B,,,/^E,,/F,,/^C,/ ^E,,/F,,/ z B,,,/^E,,/F,,/=C,/ ^E,,/F,,/ z | %47
 B,,,/^E,,/F,,/ z/ [B,,B,]2 [A,,B,,A,]2 [G,,B,,G,]2 | %48
 [F,,B,,^F,]2 [E,,B,,E,]2 [D,,B,,D,]2 [E,,B,,C,]2 | [B,,,B,,]A,,G,,F,, [B,,,B,,]A,,G,,F,, | %50
 [B,,,B,,]A,,G,,F,, [B,,,B,,]A,,G,,F,, | [B,,,B,,]A,,G,,F,, [B,,,B,,]A,,G,,F,, | %52
 [D,,D,]C,B,,A,, [D,,D,]C,B,,A,, | [B,,,B,,]A,,G,,F,, [B,,,B,,]A,,G,,F,, | %54
 [B,,,B,,]A,,G,,F,, [B,,,B,,]A,,G,,F,, | [B,,,B,,]A,,G,,F,, [B,,,B,,]A,,G,,F,, | %56
 [D,,D,]C,B,,A,, [D,,D,]C,B,,A,, | [F,,F,]^E,^D,C, [F,,F,]E,D,C, | [F,,F,]C,D,^E, [F,,F,]C,D,^E, | %59
 [F,,F,]E,D,C, [F,,F,]E,D,C, | [D,,D,]C,D,E, [F,,F,]E,D,C, | %61
 [B,,,B,,]A,,G,,F,, [B,,,B,,]A,,G,,F,, | [B,,,B,,]A,,G,,F,, [B,,,B,,]A,,G,,F,, | %63
 [B,,,B,,]A,,G,,F,, [B,,,B,,]A,,G,,F,, | [D,,D,]C,B,,A,, [D,,D,]C,B,,A,, | %65
 [B,,,B,,]A,,G,,F,, [B,,,B,,]A,,G,,F,, | [B,,,B,,]A,,G,,F,, [B,,,B,,]A,,G,,F,, | %67
 [B,,,B,,]A,,G,,F,, [B,,,B,,]A,,G,,F,, | [B,,,B,,]A,,G,,F,, [B,,,B,,]A,,G,,F,, | %69
 [B,,,B,,]2 [B,,C,E,G,]2 z4 | [B,,,B,,]2 [D,F,B,]2 z4 | [G,,G,]2 [D,G,B,]2 [F,,F,]2 [D,F,B,]2 | %72
 [E,,,F,,]2 [C,F,^A,]2 [B,,,B,,]2 [D,F,B,]2 | [B,,,B,,]2 [D,^E,^G,B,]2 z4 | %74
 [B,,,B,,]2 [D,F,B,]2 z4 | [G,,G,]2 [D,G,B,]2 [F,,F,]2 [D,F,B,]2 | %76
 [F,,,F,,]2 [E,F,^A,C]2 [B,,,B,,]2 [D,F,B,]2 | [B,,,B,,]2 [D,^E,^G,B,]2 z4 | %78
 [B,,,B,,]2 [D,F,B,]2 z4 | [G,,G,]2 [D,G,B,]2 [F,,F,]2 [D,F,B,]2 | %80
 [F,,,F,,]2 [E,F,^A,C]2 [B,,,B,,]2 [D,F,B,]2 | [B,,,B,,]2 [D,^E,^G,B,]2 z4 | %82
 [B,,,B,,]2 [D,^E,^G,B,]2 [D,E,G,B,]2 [D,E,G,B,]2 | %83
 [B,,,B,,]2 [D,^E,^G,B,]2 [D,E,G,B,]2 [D,E,G,B,]2 | %84
 [B,,,B,,]2 [D,^E,^G,B,]2 [D,E,G,B,]2 [D,E,G,B,]2 | z4 B,,,2 B,,2 | B,,,2 B,,2 B,,,2 B,,2 | %87
 [B,,,,B,,,]2 [B,,D,F,B,]2 z4 |] %88
V:3
 x8 | x8 | x8 | x8 | x8 | x8 | x8 | x8 | x8 | x8 | x8 | x8 | x8 | x8 | x8 | x8 | x8 | x8 | x8 | %19
 x8 | x8 | x8 | x8 | x8 | x8 |[K:treble] x8 | x8 | x8 | x6 [A,D]2 | x2 F2 x2 F2 | x2 F2 x2 F2 | %31
 x8 | x2 A2 x2 [Ad]2 | x2 F2 x2 F2 | x2 F2 x2 F2 | x2 F2 x2 F2 | x2 F2 x2 [F^A]2 | x8 | x8 | x8 | %40
 x6 [f^a]2 | x8 | x8 | x8 | x6 [A,D]2 | x8 | x8 | x6 [Bd]2 | x2 [Bd]2 x4 | B4 B4 | B4 B4 | B4 B4 | %52
 [Ad]4 [Ad]4 | B4 B4 | B4 B4 | B4 B4 | [Ad]4 [Ad]4 | f4 [cf]2 [cf]2 | x8 | x8 | x8 | B4 B4 | %62
 B4 B4 | B4 B4 | [Ad]4 [Ad]4 | x8 | x8 | x8 | x8 | ^g/a/^a/ x5/2 z4 | ^g/a/^a/ x13/2 | x8 | x8 | %73
 ^g/a/^a/ x5/2 z4 | ^g/a/^a/ x5/2 z4 | x8 | x8 | ^g/a/^a/ x5/2 z4 | ^g/a/^a/ x5/2 z4 | x8 | x8 | %81
 ^g/a/^a/ x5/2 z4 | x3/2 z/ ^g/a/^a/ z/ x/ =a/^a/ z/ ^g/=a/^a/ z/ | %83
 ^g/a/^a/ z/ ^g/=a/^a/ z/ ^g/=a/^a/ z/ ^g/=a/^a/ z/ | x8 | x8 | x8 | ^g/a/^a/ x5/2 z4 |] %88

